X:1
T: I'll cloot my Johnny's Grey Breeks
C:
R:Strathspey
Q: 128
K:D
M:4/4
L:1/16
|:fe|d2B2 A2F2 A3B A4|d4 fede f2e2 e2fe|d2B2 A2F2 A3B A4|d4 fede f2d2 d2fe|
d2B2 A2F2 A3B A4|d4 fede f2e2 e2fe|d2B2 A2F2 A3B A4|d4 fede f2d2 d2:|
|:g2|f3e f2g2 a4 g3f|e2b2 b3^a b2e2 e2fe|d2B2 A2F2 A3B A4|d4 fede f2d2 d2g2|
f3e f2g2 a4 g3f|e2b2 b3^a b2e2 e2fe|d2B2 A2F2 A3B A4|d4 fede f2d2 d2:|
